X:470
T: Willy Reidy's #2
S: B.Breathnach: "Ceol Rince na hEireann" II/114
Z: B.Black
L: 1/8
M: 2/4
R: polka
K: G
de/d/ Bd/B/|A(3A/B/A/ GB|AB/A/ GA|BA A2|
de/d/ Bd/B/|AB/A/ GB|AB/A/ GA|BG G2 :|
de/f/ g2|(3f/g/f/e e/f/e/d/|Bd e>f|ed BB/A/|
Bd g2|fe e/f/e/d/|Bd ef|g2 gg/e/ :|

